X: 1
T: abc2mps incompatibility
M: 2/4
L: 1/8
K: G
%%staves [S A T]
V: S
cdcd|egeg| cdcd|egeg| cdcd|egeg|
V: A
AGAG|GBGB| AGAG|GBGB| AGAG|GBGB|
V: T
A,CA,C|FDFD| A,CA,C|FDFD| A,CA,C|FDFD|
